dist/flags/s/796.svg

<svg width="16" height="12" viewBox="0 0 16 12" fill="none" xmlns="http://www.w3.org/2000/svg">
<mask id="mask0" mask-type="alpha" maskUnits="userSpaceOnUse" x="0" y="0" width="16" height="12">
<rect width="16" height="12" fill="white"/>
</mask>
<g mask="url(#mask0)">
<path fill-rule="evenodd" clip-rule="evenodd" d="M0 0V12H16V0H0Z" fill="#2E42A5"/>
<mask id="mask1" mask-type="alpha" maskUnits="userSpaceOnUse" x="0" y="0" width="16" height="12">
<path fill-rule="evenodd" clip-rule="evenodd" d="M0 0V12H16V0H0Z" fill="white"/>
</mask>
<g mask="url(#mask1)">
<path fill-rule="evenodd" clip-rule="evenodd" d="M10.5233 5.01636C10.5233 5.01636 10.9664 10.982 12.9643 10.982C14.9623 10.982 15.4537 5.01636 15.4537 5.01636H10.5233Z" fill="#FECA00" stroke="#F7FCFF" stroke-width="0.25"/>
<path fill-rule="evenodd" clip-rule="evenodd" d="M12.9556 5.31091L13.0288 5.22828L13.3758 5.44931C13.426 5.37118 13.5155 5.33483 13.6408 5.34083L13.5142 5.14811L13.6173 5.09321L13.8575 5.38238L13.8813 5.38983L13.8204 5.01407L13.9411 5L14.02 5.48693C14.022 5.48683 14.0239 5.48678 14.0258 5.48678C14.0598 5.48678 14.0981 5.50319 14.1374 5.52924L14.2232 5L14.344 5.01407L14.2831 5.38983L14.3068 5.38238L14.547 5.09321L14.6501 5.14811L14.5235 5.34083C14.6488 5.33483 14.7383 5.37118 14.7886 5.44931L15.1355 5.22828L15.2088 5.31091L14.8281 5.55343C14.8333 5.58084 14.8359 5.61088 14.8359 5.64355V5.69979L15.3613 5.58464L15.4 5.68236L14.8359 5.88224V5.95048L15.3707 5.90717L15.3868 6.00955L14.8359 6.08972V6.20763L15.3882 6.29887L15.3659 6.40049L14.8359 6.32125V7.47032H14.7546V6.3091L14.3991 6.25595C14.3592 6.53711 14.3143 6.89109 14.3206 7.01907C14.3268 7.14552 14.4212 7.19971 14.4875 7.23775C14.5391 7.26734 14.5736 7.28716 14.5363 7.32362C14.4512 7.40695 14.2386 7.48678 14.0258 7.48678C13.813 7.48678 13.6031 7.40695 13.5577 7.32362C13.5495 7.30875 13.5506 7.30995 13.5579 7.31831C13.5914 7.35681 13.7574 7.54718 13.7704 7.01907C13.7775 6.72929 13.735 6.4677 13.6861 6.26778L13.4097 6.3091V7.47032H13.3284V6.32125L12.7984 6.40049L12.7762 6.29887L13.3284 6.20763V6.08972L12.7775 6.00955L12.7936 5.90717L13.3284 5.95048V5.88224L12.7643 5.68236L12.8031 5.58464L13.3284 5.69979V5.64355C13.3284 5.61088 13.3311 5.58084 13.3363 5.55343L12.9556 5.31091ZM13.6509 6.13665C13.6526 6.1422 13.6542 6.14783 13.6558 6.15354L13.4097 6.1942V6.10155L13.6509 6.13665ZM13.6561 5.75716C13.6523 5.76124 13.6487 5.76526 13.6452 5.76921L13.4097 5.7176V5.64355C13.4097 5.62877 13.4103 5.61469 13.4114 5.60131L13.6561 5.75716ZM13.8126 5.60241C13.7852 5.62593 13.7583 5.6513 13.7327 5.67673L13.442 5.4915C13.4828 5.4206 13.5632 5.39482 13.6884 5.41337L13.8126 5.60241ZM14.3472 5.73049L14.7224 5.4915C14.6815 5.4206 14.6011 5.39482 14.4759 5.41337L14.3019 5.67839C14.3178 5.69594 14.333 5.7135 14.3472 5.73049ZM14.4737 5.77917L14.7529 5.60131C14.7541 5.61469 14.7546 5.62877 14.7546 5.64355V5.7176L14.4737 5.77917ZM14.5862 5.9707L14.7546 5.91103V5.95706L14.5862 5.9707ZM14.4565 6.14494L14.7546 6.10155V6.1942L14.4565 6.14494ZM13.4097 5.91103V5.95706L13.5781 5.9707L13.4097 5.91103Z" fill="#CF6900"/>
<path fill-rule="evenodd" clip-rule="evenodd" d="M12.439 7.92139C12.439 7.92139 11.7822 9.02144 11.7822 9.68822C11.7822 9.68822 12.2298 10.0432 12.9996 10.0432C13.7694 10.0432 14.1656 9.68822 14.1656 9.68822C13.9488 8.89781 13.5799 7.92139 13.5799 7.92139H12.439Z" fill="#00A727"/>
<path fill-rule="evenodd" clip-rule="evenodd" d="M12.471 7.61761C12.471 7.31467 12.7166 7.06909 13.0195 7.06909C13.3224 7.06909 13.568 7.31467 13.568 7.61761V7.99285H12.471V7.61761Z" fill="#E31D1C"/>
<path fill-rule="evenodd" clip-rule="evenodd" d="M10.7596 6.4168C10.7596 6.4168 11.6265 6.5954 11.6265 6.87702C11.6265 7.15864 11.9756 7.26019 12.0614 7.18405C12.1471 7.10792 12.7512 7.05466 12.7512 6.68758C12.7512 6.3205 12.8016 6.22056 12.6549 5.98746C12.5082 5.75436 12.2022 4.96638 12.1318 5.28209C12.0614 5.59779 11.9554 5.83167 11.7596 5.64348C11.5638 5.45529 11.3123 5.05688 11.2241 5.28209C11.1358 5.5073 11.5038 5.73335 11.2241 5.73335C10.9443 5.73335 11.1415 5.74811 11.1415 5.9388C11.1415 6.12948 11.1747 6.30922 10.9671 6.30922C10.7596 6.30922 10.7596 6.4168 10.7596 6.4168Z" fill="#FF927F"/>
<mask id="mask2" mask-type="alpha" maskUnits="userSpaceOnUse" x="0" y="0" width="9" height="7">
<rect width="9" height="7" fill="white"/>
</mask>
<g mask="url(#mask2)">
<path d="M-1.00214 6.49981L0.978339 7.36841L9.04494 0.944269L10.0896 -0.346497L7.97176 -0.636808L4.68159 2.13154L2.03334 3.99675L-1.00214 6.49981Z" fill="#F7FCFF"/>
<path d="M-0.731018 7.10849L0.277943 7.61255L9.71445 -0.466309H8.29775L-0.731018 7.10849Z" fill="#F50100"/>
<path d="M10.0021 6.49981L8.02166 7.36841L-0.0449371 0.944269L-1.08959 -0.346497L1.02824 -0.636808L4.31841 2.13154L6.96666 3.99675L10.0021 6.49981Z" fill="#F7FCFF"/>
<path d="M9.93457 6.93661L8.92561 7.44067L4.90745 3.9817L3.71615 3.59523L-1.1901 -0.342034H0.226597L5.13009 3.50178L6.43256 3.96519L9.93457 6.93661Z" fill="#F50100"/>
<mask id="path-15-outside-1" maskUnits="userSpaceOnUse" x="-1" y="-1" width="11" height="9" fill="black">
<rect fill="white" x="-1" y="-1" width="11" height="9"/>
<path fill-rule="evenodd" clip-rule="evenodd" d="M4.99226 0H3.99226V3H0V4H3.99226V7H4.99226V4H9V3H4.99226V0Z"/>
</mask>
<path fill-rule="evenodd" clip-rule="evenodd" d="M4.99226 0H3.99226V3H0V4H3.99226V7H4.99226V4H9V3H4.99226V0Z" fill="#F50100"/>
<path d="M3.99226 0V-0.75H3.24226V0H3.99226ZM4.99226 0H5.74226V-0.75H4.99226V0ZM3.99226 3V3.75H4.74226V3H3.99226ZM0 3V2.25H-0.75V3H0ZM0 4H-0.75V4.75H0V4ZM3.99226 4H4.74226V3.25H3.99226V4ZM3.99226 7H3.24226V7.75H3.99226V7ZM4.99226 7V7.75H5.74226V7H4.99226ZM4.99226 4V3.25H4.24226V4H4.99226ZM9 4V4.75H9.75V4H9ZM9 3H9.75V2.25H9V3ZM4.99226 3H4.24226V3.75H4.99226V3ZM3.99226 0.75H4.99226V-0.75H3.99226V0.75ZM4.74226 3V0H3.24226V3H4.74226ZM0 3.75H3.99226V2.25H0V3.75ZM0.75 4V3H-0.75V4H0.75ZM3.99226 3.25H0V4.75H3.99226V3.25ZM4.74226 7V4H3.24226V7H4.74226ZM4.99226 6.25H3.99226V7.75H4.99226V6.25ZM4.24226 4V7H5.74226V4H4.24226ZM9 3.25H4.99226V4.75H9V3.25ZM8.25 3V4H9.75V3H8.25ZM4.99226 3.75H9V2.25H4.99226V3.75ZM4.24226 0V3H5.74226V0H4.24226Z" fill="#F7FCFF" mask="url(#path-15-outside-1)"/>
</g>
</g>
</g>
</svg>

<svg width="16" height="12" fill="none" xmlns="http://www.w3.org/2000/svg">
  <mask id="a" maskUnits="userSpaceOnUse" x="0" y="0" width="16" height="12">
    <path fill="#fff" d="M0 0h16v12H0z"/>
  </mask>
  <g mask="url(#a)">
    <path fill-rule="evenodd" clip-rule="evenodd" d="M0 0v12h16V0H0z" fill="#2E42A5"/>
    <mask id="b" maskUnits="userSpaceOnUse" x="0" y="0" width="16" height="12">
      <path fill-rule="evenodd" clip-rule="evenodd" d="M0 0v12h16V0H0z" fill="#fff"/>
    </mask>
    <g mask="url(#b)">
      <path fill-rule="evenodd" clip-rule="evenodd" d="M10.523 5.016s.443 5.966 2.441 5.966c1.998 0 2.49-5.966 2.49-5.966h-4.93z" fill="#FECA00" stroke="#F7FCFF" stroke-width=".25"/>
      <path fill-rule="evenodd" clip-rule="evenodd" d="M12.956 5.31l.073-.082.347.221c.05-.078.14-.114.265-.108l-.127-.193.103-.055.24.29.024.007-.06-.376.12-.014.079.487h.006a.21.21 0 01.111.042L14.223 5l.12.014-.06.376.024-.008.24-.289.103.055-.127.193c.126-.006.215.03.266.108l.347-.22.073.082-.38.242a.493.493 0 01.007.09V5.7l.525-.115.039.097-.564.2v.068l.535-.043.016.103-.551.08v.118l.552.09-.022.102-.53-.079v1.15h-.081V6.308l-.356-.053c-.04.281-.085.635-.078.763.006.127.1.18.167.219.051.03.086.05.048.086-.085.083-.297.163-.51.163-.213 0-.423-.08-.468-.163-.008-.015-.007-.014 0-.006.033.039.2.23.212-.299a2.894 2.894 0 00-.084-.751l-.276.041V7.47h-.082V6.321l-.53.08-.022-.102.552-.091V6.09l-.55-.08.016-.103.534.043v-.068l-.564-.2.039-.097.525.115v-.056c0-.033.003-.063.008-.09l-.38-.243zm.695.827l.005.017-.246.04v-.092l.24.035zm.005-.38l-.01.012-.236-.051v-.074l.001-.043.245.156zm.156-.155a1.51 1.51 0 00-.08.075l-.29-.185c.04-.071.121-.097.246-.079l.124.19zm.535.128l.375-.239c-.04-.07-.12-.096-.246-.078l-.174.265.045.052zm.127.05l.279-.179a.515.515 0 01.002.043v.074l-.281.061zm.112.19l.169-.059v.046l-.169.014zm-.13.175l.299-.043v.092l-.299-.05zM13.41 5.91v.046l.168.014-.168-.06z" fill="#CF6900"/>
      <path fill-rule="evenodd" clip-rule="evenodd" d="M12.439 7.921s-.657 1.1-.657 1.767c0 0 .448.355 1.217.355.77 0 1.166-.355 1.166-.355a23.99 23.99 0 00-.585-1.767h-1.141z" fill="#00A727"/>
      <path fill-rule="evenodd" clip-rule="evenodd" d="M12.47 7.618a.549.549 0 011.098 0v.375h-1.097v-.375z" fill="#E31D1C"/>
      <path fill-rule="evenodd" clip-rule="evenodd" d="M10.76 6.417s.867.178.867.46c0 .282.348.383.434.307.086-.076.69-.13.69-.496 0-.368.05-.467-.096-.7-.147-.234-.453-1.022-.523-.706-.07.316-.177.55-.373.361-.195-.188-.447-.586-.535-.361-.088.225.28.451 0 .451s-.083.015-.083.206c0 .19.034.37-.174.37s-.208.108-.208.108z" fill="#FF927F"/>
      <mask id="c" maskUnits="userSpaceOnUse" x="0" y="0" width="9" height="7">
        <path fill="#fff" d="M0 0h9v7H0z"/>
      </mask>
      <g mask="url(#c)">
        <path d="M-1.002 6.5l1.98.868L9.045.944l1.045-1.29-2.118-.29-3.29 2.768-2.649 1.865L-1.002 6.5z" fill="#F7FCFF"/>
        <path d="M-.731 7.108l1.009.505 9.437-8.08H8.298L-.731 7.109z" fill="#F50100"/>
        <path d="M10.002 6.5l-1.98.868L-.045.944-1.09-.346l2.118-.29 3.29 2.768 2.649 1.865L10.002 6.5z" fill="#F7FCFF"/>
        <path d="M9.935 6.937l-1.01.504-4.018-3.46-1.19-.386L-1.19-.342H.227L5.13 3.502l1.303.463 3.502 2.972z" fill="#F50100"/>
        <mask id="d" maskUnits="userSpaceOnUse" x="-1" y="-1" width="11" height="9" fill="#000">
          <path fill="#fff" d="M-1-1h11v9H-1z"/>
          <path fill-rule="evenodd" clip-rule="evenodd" d="M4.992 0h-1v3H0v1h3.992v3h1V4H9V3H4.992V0z"/>
        </mask>
        <path fill-rule="evenodd" clip-rule="evenodd" d="M4.992 0h-1v3H0v1h3.992v3h1V4H9V3H4.992V0z" fill="#F50100"/>
        <path d="M3.992 0v-.75h-.75V0h.75zm1 0h.75v-.75h-.75V0zm-1 3v.75h.75V3h-.75zM0 3v-.75h-.75V3H0zm0 1h-.75v.75H0V4zm3.992 0h.75v-.75h-.75V4zm0 3h-.75v.75h.75V7zm1 0v.75h.75V7h-.75zm0-3v-.75h-.75V4h.75zM9 4v.75h.75V4H9zm0-1h.75v-.75H9V3zM4.992 3h-.75v.75h.75V3zm-1-2.25h1v-1.5h-1v1.5zM4.742 3V0h-1.5v3h1.5zM0 3.75h3.992v-1.5H0v1.5zM.75 4V3h-1.5v1h1.5zm3.242-.75H0v1.5h3.992v-1.5zM4.742 7V4h-1.5v3h1.5zm.25-.75h-1v1.5h1v-1.5zM4.242 4v3h1.5V4h-1.5zM9 3.25H4.992v1.5H9v-1.5zM8.25 3v1h1.5V3h-1.5zm-3.258.75H9v-1.5H4.992v1.5zM4.242 0v3h1.5V0h-1.5z" fill="#F7FCFF" mask="url(#d)"/>
      </g>
    </g>
  </g>
</svg>
